!!!OTL: ICH WOLLT ICH LAEG UND SCHLIEF
!!!ARE: Europa, Mitteleuropa, Deutschland, Sachsen, Anhalt - Zerbst
!!!SCT: E0707
!!!YEM: Copyright 1995, estate of Helmut Schaffrath.
**kern
*ICvox
*Ivox
*M4/4
*k[b-]
*F:
{4c
=1
4.f
8a
4g
4b-
=2
2.a}
{4cc
=3
4.cc
8a
4dd
8cc
8b-
=4
2.a}
{4cc
=5
4.cc
8b-
4g
4g
=6
4.a
8b-
4cc}
{8a
8cc
=7
4.cc
8b-
4g
4g
=8
4.a
8b-
4cc}
{4c
=9
4.f
8a
4g
4b-
=10
2.a}
{4cc
=11
4.cc
8dd
4cc
4b-
=12
2.a}
==
!!!AGN: Liebes - Lied, Leid, Klage
!!!ONB: ESAC (Essen Associative Code) Database: ERK2
!!!AMT: simple quadruple
!!!AIN: vox
!!!EED: Helmut Schaffrath
!!!EEV: 1.0
*-
